X:1
T:Title
%%score 1 { 2 | 3 }
L:1/8
Q:1/4=100
M:9/8
K:Ab
V:1 treble nm="Grand Piano, Soprano"
V:2 bass nm="Choir Pad, Have Ye Received"
V:3 bass 
V:1
 [Ec][=D_c][E=c] [CA]3 [CE]3 | C[CE][CA] [EG]3 [DF]3 | [DF][FB][Ec] [Fd]3 [Fc]2 [FB] | %3
w: By~Lelia~Naylor~Morris * * * *|||
 [EA][DG][CA] [EB]6 | [Ec][=D_c][E=c] [CA]3 [CE]3 | [CE][CA][Ec] [_Ge]3 [Fd]3 | %6
w: |||
 [FB][FB][F_c] [E=c]3 [EA]2 [CE] | [B,E][DG][DB] [CA]6 |[M:12/8] [Ge]3- [Ge][GB][FA] [Bd]6 | %9
w: |||
 [Ac]3- [Ac][CA][EB] [Ac]3- [Ac]3/2 z/ [Ac] | [EB]3- [EB]2 [FA] [EG]3 [=DF]3 | %11
w: ||
[M:9/8] E2 C B,2 C D3 | [CE][_C=D][=CE] [CA]3 [Ec]3 | [CA][DB][Ec] [Fd]3 F3 | %14
w: |||
 [F=d][Fd][Ad] [Ge]3- [Ge]2 [G_d] | [Gc]2 [GB] [EA]6- | [EA]3 z3 z3 |] %17
w: |||
V:2
 A,A,A, E,3 E,3 | E,A,A, A,3 A,3 | A,F,=A, B,3 A,2 B, | CB,A, G,6 | A,A,A, E,3 A,3 | %5
 A,E,A, A,3 A,3 | A,A,A, A,3 C2 A, | G,B,G, A,6 |[M:12/8] B,B,B, .B,3[K:treble] EEE .E3 | %9
 EEE .E3 EEE E2 E | E2 E E2 C[K:bass] B,3 A,3 |[M:9/8] G,2 G, G,2 A, B,3 | A,,A,,A,, E,3 A,3 | %13
 A,A,A, A,3 A,3 | B,B,B, B,2 B, B,2[K:treble] B, | E2 D C6- | C3 z3 z3 |] %17
V:3
 A,,A,,A,, A,,3 A,,3 | A,,A,,A,, D,3 D,3 | D,D,C, B,,3 C,2 D, | E,E,E, E,6 | A,,A,,A,, A,,3 A,,3 | %5
 A,,A,,A,, C,3 D,3 | D,D,=D, E,3 E,2 E, | E,E,E, A,,6 |[M:12/8] E,E,E, .E,3 E,E,E, .E,3 | %9
 A,A,A, .A,3 A,A,A, A,2 A, | G,2 G, G,2 A, z3 B,,3 |[M:9/8] E,6- E,2- E,/ z/ | z3 A,,3 A,,3 | %13
 z3 D,3 D,3 | B,,B,,B,, E,2 E, E,2 E, | E,2 E, A,,6- | A,,3 z3 z3 |] %17

